X: 2
T: The Crock Of Gold
R: reel
M: 4/4
L: 1/8
K: Gmaj
1.) |: ea a2 bage | a2 ba gede | gedB GABd | ~2.) |: eaag a2 ga | baga bagf | g ~3.) | eaaa a2 ga | a2 ga bage | gedB G2 Bd | gedB BA A2 | ~ & it's a single reel!!!


Tune 433	Setting 22633

